X: 9125
T: Daddy Shannon's
R: jig
M: 6/8
K: Dmajor
|:"D"A,2B, DAG|FAd d2B|BAA AGF|"G"GEE E2 A,|
"D"A,2C CEE|"Em"EGG "C"c2B|"A"BAA AEF|"G"GF^E "A"_GA=G|
"A"FGA Ade|"D"fge fag|fdA "G"gdA|"A"afd fed|
"D"Bdd dcB|"A"AdB AFD|"G"B,GE A,FE|1 "C"CDE "D"D2 B,:|2 CDE D2 C||
|:"Bm"B,3 DB,D|EDE F2 E|FBc dcB|cB_B =B2 f|
"D"dBF "Bm"BFE|B,DE "Fbm"^E3|1 E2 ^E =EDA,|"Bm"B,3 "D"DB,A,:|2 "G"E2E EFA|"D"B3B2c||
d3 dAA|AFF F2A|"G"Ggg gfg|"D"Gff fed|
faa aaa|edd dfa|"G"bgB geA|Afe "D"dag|
ead dfA|AdF FAF|"G"Ggg gfg|Gff fed|
"D"faa aaa|edd dfa|"G"bgB geA|"A"Afe "D"dcB||
|:AGF "Em"E3|EFD E2 A,|"G"A,GG GAA|ABB "D"BAB|
AGF "Em"E3|EFD E2 A,|"A"A,GF "G"G2F|EDC "D"D3:|

